X:1
T:Wonderful, Unfailing Friend
T:Wonderful, Unfailing Friend
T:Albert Simpson Reitz
T:Albert Simpson Reitz, 1918
T:Public Domain Courtesy of the Cyber Hymnal™
T:Public Domain Courtesy of the Cyber Hymnal™
C:Albert Simpson Reitz
Z:Public Domain
Z:Courtesy of the Cyber Hymnal™
%%score ( 1 2 ) ( 3 4 )
L:1/8
Q:1/4=95
M:4/4
K:Ab
V:1 treble 
V:2 treble 
V:3 bass 
V:4 bass 
V:1
 [CE]2 | [CE][Ec][DB][CA] [B,G][B,B][CA][CF] | [DA]2 [DG]2 z2 [DE]2 | %3
w: 1.~There|nev- er was a tru- er friend than|Je- sus, He|
w: 2.~There|nev- er was a tru- er friend than|Je- sus, My|
w: 3.~There|nev- er was a tru- er friend than|Je- sus, He|
 [DE][Ed][Ec][EB] [DE][DG][DB][F=B] | c6 [CE]2 | [CE][Ec][DB][CA] [CG][CB][CA][CF] | %6
w: hears me when my heart for mer- cy|pleads; And|no one knows my bur- dens like my|
w: sor- rows He will al- ways with me|share; And|since He bore His cross, my bless- èd|
w: is my life and strength, my all in|all; Up-|on the strong and lov- ing arms of|
 [B,G]2 [EB]2 z2 [EB]2 | [=DB][DB][A=d][Ac] [GB][FA][EG][DF] | E4- [Ed]2 ||"^Refrain" [Ec]>[=D=B] | %10
w: Je- sus, For|He a- lone can un- der- stand my|needs. *||
w: Je- sus, There|is no cross He will not help me|bear. *|Won- der-|
w: Je- sus My|soul shall rest, and nev- er, nev- er|fail. *||
 [Ec]3 [Ec] [Fd][Ec] [DB]>[C=A] | [Ec]2 [DB]3 [DB][DB][C=A] | [DB]3 [Ec] [Ge][Gd] [GB]>[G=B] | %13
w: |||
w: ful, un- fail- ing friend is|Je- sus, He fills my|soul with sing- ing all the|
w: |||
 c6 [Ac]>[A=B] | [Ac]3 [Ac] [_Gc][Gc] [Gd]>[Ge] | [Fe]2 [Fd]2 z2 d2 | %16
w: |||
w: day; Won- der-|ful, e- ter- nal friend is|Je- sus, And|
w: |||
 [Ec]3 [EA] [=DA][DG] [_DB]>[CA] | A6 |] %18
w: ||
w: He’ll go with me all the|way.|
w: ||
V:2
 x2 | x8 | x8 | x8 | (EAGF E2) x2 | x8 | x8 | x8 | E4 x2 || x2 | x8 | x8 | x8 | (AAG>F E2) x2 | %14
 x8 | x6 (F_F) | x8 | (C2 DD C2) |] %18
V:3
 [A,,A,]2 | [A,,A,][A,,A,][A,,A,][A,,A,] [A,,A,][A,,A,][A,,A,][A,,E,] | [B,,E,]2 E,2 z2 [E,G,]2 | %3
 [E,G,][E,B,][E,A,][E,G,] [E,G,][E,B,][E,G,][E,G,] | (A,A,A,A, A,2) [A,,A,]2 | %5
 [A,,A,][A,,A,][A,,A,][A,,A,] [A,,A,][A,,A,][A,,A,][A,,E,] | [B,,E,]2 [B,,G,]2 z2 [B,,G,]2 | %7
 [B,,A,][B,,A,][B,,B,][B,,B,] [B,,B,][B,,B,][B,,B,][B,,A,] | [E,G,]6 || [A,,A,]>[A,,A,] | %10
 [A,,A,]3 [A,,A,] [A,,A,][A,,A,] [E,G,]>[E,^F,] | [E,A,]2 [E,G,]3 [E,G,][E,G,][E,^F,] | %12
 [E,G,]3 [E,A,] [E,B,][E,E] [E,E]>[E,E] | (EEE>E E2) [A,E]>[A,=D] | %14
 [A,E]3 [A,E] [A,E][A,E] [A,E]>[A,C] | [D,D]2 [D,D]2 z2 [D,A,]2 | %16
 [E,A,]3 [C,A,] [B,,B,][B,,B,] [E,G,]>[A,,A,] | (A,2 E,E, E,2) |] %18
V:4
 x2 | x8 | x2 E,2 x4 | x8 | A,,6 x2 | x8 | x8 | x8 | x6 || x2 | x8 | x8 | x8 | A,6 x2 | x8 | x8 | %16
 x8 | A,,6 |] %18

